X: 271
T: Humors of "K"(angiqturursiq)
T: MacAdam's Fancy Hornpipe
C: BB 1/09
N: 082264
M: 4/4
L: 1/8
Q: 320 
R: hornpipe
K: G
B/c/ | "G"dBGB dBgB | "Am"cBAG "D"FGA2 | "G"dBGB d^cde | "D"fed^c d3 B/c/  |
"G"dBGB dBgB  | "Am"cBAG "D"FEDF | "G"G2 BG "C"EGce | "D7"dcAF "G"G3 :|
B |"G"d^cdg bagf | "C"eceg "Am"agfe | "G"d^cde "D7"fd=cA| "Em"BedB "D"A3 B/c/|
"G"dBGB dBgB |  "Am"cBAG "D"FGAF  | "G"GBdB "Am7"ceag | "D7"fdcA "G"G3 :|
%%%%%%%%%%%%%%%%%%%%%%%%%%%%%%%
